X: 1491
T: My Honey in the House   #2
T: mo .muirnin annsa ti.g.
R: reel
O: McNamara
B: O'Neill "Music of Ireland" 1850 #1491"
Z: transcribed by John B. Walsh, 8/22/96
M: C|
L: 1/8
K: D
|: DEFG A2(AB) | cAdB cAGE |1 DEFG A2(AG) | EFGE (FD)D2 :|2 Addc dfed | cAGE FDD2 |]
|: d2fd efge   | d2fd edcB |1 AGAB c2(cB) | EFGE (FD)D2 :|2 Addc dfed | cAGE FDD2 |]
